coreui/free/cil-underline.svg

<svg viewBox="0 0 512 512" xmlns="http://www.w3.org/2000/svg"><g><path d="M16 496h480V16H16ZM48 48h416v416H48Z"/><path d="M296 152h32v88 0c.01 35.32-28.61 63.98-63.94 63.99 -8.25 0-16.43-1.59-24.07-4.69V151.98h24v-32h-128v32h32v88 0c0 53.01 42.98 96 96 96 53.01 0 96-42.99 96-96v-88h32v-32h-96Z"/><path d="M136 368h256v32H136Z"/></g></svg>

<svg xmlns="http://www.w3.org/2000/svg" viewBox="0 0 512 512">
  <path fill="var(--ci-primary-color, currentColor)" d="M16,496H496V16H16ZM48,48H464V464H48Z" class="ci-primary"/>
  <path fill="var(--ci-primary-color, currentColor)" d="M296,152h32v88a63.966,63.966,0,0,1-88,59.313V152h24V120H136v32h32v88a96,96,0,0,0,192,0V152h32V120H296Z" class="ci-primary"/>
  <rect width="256" height="32" x="136" y="368" fill="var(--ci-primary-color, currentColor)" class="ci-primary"/>
</svg>
